v/0.4.11/design-resources/icons/wf_doctype-icons/file-validate.svg

<?xml version="1.0" encoding="utf-8"?>
<!-- Generated by IcoMoon.io -->
<!DOCTYPE svg PUBLIC "-//W3C//DTD SVG 1.1//EN" "http://www.w3.org/Graphics/SVG/1.1/DTD/svg11.dtd">
<svg version="1.1" xmlns="http://www.w3.org/2000/svg" xmlns:xlink="http://www.w3.org/1999/xlink" width="512" height="512" viewBox="0 0 512 512">
<g>
</g>
	<path d="M348.812 32h-316.812v448h384v-380.797c0-37.109-30.093-67.203-67.188-67.203zM384 448h-320v-384h284.812c19.406 0 35.188 15.797 35.188 35.203v348.797zM189.25 286.016l-50.875-50.86-42.375 42.36 93.25 93.233 162.75-162.765-42.375-42.359-120.375 120.391z" fill="#595959" />
</svg>

<svg xmlns="http://www.w3.org/2000/svg" width="512" height="512" viewBox="0 0 512 512"><path stroke="#449FDB" d="M0 0"/><path d="M348.812 32H32v448h384V99.203C416 62.093 385.907 32 348.812 32zM384 448H64V64h284.812C368.218 64 384 79.797 384 99.203V448zM189.25 286.016l-50.875-50.86L96 277.516l93.25 93.233L352 207.982l-42.375-42.36L189.25 286.017z" fill="#595959"/></svg>
